X: 06019
T: The DREAMY POLKA
C: Bob McQuillen 5 Dec 81
B: Bob's Note Book 6 #19
%R: polka
Z: 2021 John Chambers <jc:trillian.mit.edu>
M: C
L: 1/8
K: G
Bc \
| d2B2 c2A2 | B2G2 G2AB | c2A2 ABcd | e2d2 d2Bc |\
| d2B2 c2A2 | B2G2 G2AB | cBAG FGAB | A2G2 G2 :|
|: ga \
| b2g2 a2f2 | g2d2 d2Bd | edcB ABcd | e2d2 d2ga |\
| b2g2 a2f2 | g2d2 d2Bd | edcB cAdc | B2G2 G2 :|
%%begintext align
%% his little tune came in a
%% dream I woke up with this
%% morning - Weird, huh?
%%endtext

%%sep 1 1 500

%%sep 1 1 500

